storage/app/icons/phosphoricons/fill/address-book-tabs-fill.svg

<svg xmlns="http://www.w3.org/2000/svg" fill="currentColor" viewBox="0 0 256 256"><path d="M208 32H48a16 16 0 0 0-16 16v160a16 16 0 0 0 16 16h160a16 16 0 0 0 16-16V48a16 16 0 0 0-16-16m-24 16h24v40h-24Zm0 56h24v48h-24Zm-38 71.75a8 8 0 0 1-9.74-5.76c-2.63-10.26-13.06-18-24.25-18s-21.61 7.74-24.25 18a8 8 0 0 1-15.5-4 39.84 39.84 0 0 1 17.19-23.34 32 32 0 1 1 45.12 0A39.76 39.76 0 0 1 151.75 166a8 8 0 0 1-5.75 9.75M208 208h-24v-40h24zm-80-88a16 16 0 1 1-16-16 16 16 0 0 1 16 16"/></svg>

<svg xmlns="http://www.w3.org/2000/svg" viewBox="0 0 256 256" fill="currentColor"><path d="M208,32H48A16,16,0,0,0,32,48V208a16,16,0,0,0,16,16H208a16,16,0,0,0,16-16V48A16,16,0,0,0,208,32ZM184,48h24V88H184Zm0,56h24v48H184Zm-38,71.75a8,8,0,0,1-9.74-5.76c-2.63-10.26-13.06-18-24.25-18s-21.61,7.74-24.25,18a8,8,0,0,1-15.5-4,39.84,39.84,0,0,1,17.19-23.34,32,32,0,1,1,45.12,0A39.76,39.76,0,0,1,151.75,166,8,8,0,0,1,146,175.75ZM208,208H184V168h24v40Zm-80-88a16,16,0,1,1-16-16A16,16,0,0,1,128,120Z"/></svg>
